src/activities/arts-crafts/1F9F6.svg

<svg id="emoji" viewBox="0 0 72 72" xmlns="http://www.w3.org/2000/svg">
  <g id="grid">
    <path fill="#b3b3b3" d="M68,4V68H4V4H68m4-4H0V72H72V0Z"/>
    <path fill="none" stroke="#00a5ff" stroke-miterlimit="10" stroke-width="0.1" d="M12.923,10.9583H59.0769A1.9231,1.9231,0,0,1,61,12.8814V59.0352a1.9231,1.9231,0,0,1-1.9231,1.9231H12.9231A1.9231,1.9231,0,0,1,11,59.0352V12.8813a1.923,1.923,0,0,1,1.923-1.923Z"/>
    <rect x="16" y="4" rx="2.2537" width="40" height="64" fill="none" stroke="#00a5ff" stroke-miterlimit="10" stroke-width="0.1"/>
    <rect x="16" y="4" rx="2.2537" width="40" height="64" transform="translate(72) rotate(90)" fill="none" stroke="#00a5ff" stroke-miterlimit="10" stroke-width="0.1"/>
    <circle cx="36" cy="36" r="29" fill="none" stroke="#00a5ff" stroke-miterlimit="10" stroke-width="0.1"/>
  </g>
  <g id="color">
    <circle cx="30.8061" cy="34.8221" r="22.2237" fill="#f4aa41"/>
    <path fill="#e27022" d="M43.2943,15.8254C37.055,18.5041,31.2826,23.86,31.2826,33.4714s2.7688,16.8558,11.31,19.955c5.712-4.986,11.01-8.8868,11.01-18.4984S47.09,18.8793,43.2943,15.8254Z"/>
  </g>
  <g id="line">
    <circle cx="30.8061" cy="34.8221" r="22.2237" fill="none" stroke="#000" stroke-linecap="round" stroke-linejoin="round" stroke-width="2"/>
    <path fill="none" stroke="#000" stroke-linecap="round" stroke-linejoin="round" stroke-width="2" d="M43.92,17.0156a22.124,22.124,0,0,1-13.1141,4.28,22.1238,22.1238,0,0,1-13.1232-4.2865"/>
    <path fill="none" stroke="#000" stroke-linecap="round" stroke-linejoin="round" stroke-width="2" d="M46.7354,19.6607c-3.3016,4.46-9.726,8.3615-15.9293,8.3615a21.241,21.241,0,0,1-16.21-8.2991"/>
    <path fill="none" stroke="#000" stroke-linecap="round" stroke-linejoin="round" stroke-width="2" d="M49.1487,22.6555C46.3245,29.142,38.6345,34.7491,30.8061,34.7491A21.24,21.24,0,0,1,12.3428,23.0609"/>
    <path fill="none" stroke="#000" stroke-linecap="round" stroke-linejoin="round" stroke-width="2" d="M51.2308,26.4248c-2.6184,8.1809-11.28,15.0511-20.4247,15.0511a22.361,22.361,0,0,1-20.5554-14.815"/>
    <path fill="none" stroke="#000" stroke-linecap="round" stroke-linejoin="round" stroke-width="2" d="M52.559,30.5513A22.2316,22.2316,0,0,1,30.8061,48.2027,22.6412,22.6412,0,0,1,8.8738,31.2144"/>
    <path fill="none" stroke="#000" stroke-linecap="round" stroke-linejoin="round" stroke-width="2" d="M45.1424,51.971c1.3165.9452,3.7331,3.6351,6.6276,3.6753s5.5935-3.1506,7.0575-2.3287c2.6065,1.4632,3.7516,3.7282,6.6919,3.7746"/>
    <path fill="none" stroke="#000" stroke-linecap="round" stroke-linejoin="round" stroke-width="2" d="M37.8184,55.8438A22.7078,22.7078,0,0,1,23.7208,34.8221,22.2316,22.2316,0,0,1,37.8392,14.1228"/>
    <path fill="none" stroke="#000" stroke-linecap="round" stroke-linejoin="round" stroke-width="2" d="M41.5632,15.8254A22.2229,22.2229,0,0,0,30.3879,34.8221,21.8953,21.8953,0,0,0,41.66,53.9286"/>
    <path fill="none" stroke="#000" stroke-linecap="round" stroke-linejoin="round" stroke-width="2" d="M44.5777,17.8248A22.926,22.926,0,0,0,37.055,34.8221c0,6.904,2.8854,13.414,8.0874,17.1489"/>
  </g>
</svg>

<svg viewBox="0 0 72 72" xmlns="http://www.w3.org/2000/svg"><path fill="#b3b3b3" d="M68 4v64H4V4h64m4-4H0v72h72V0z"/><path fill="none" stroke="#00a5ff" stroke-miterlimit="10" stroke-width=".1" d="M12.923 10.958h46.154A1.923 1.923 0 0161 12.881v46.154a1.923 1.923 0 01-1.923 1.923H12.923A1.923 1.923 0 0111 59.035V12.881a1.923 1.923 0 011.923-1.923z"/><rect x="16" y="4" rx="2.254" width="40" height="64" fill="none" stroke="#00a5ff" stroke-miterlimit="10" stroke-width=".1"/><rect x="16" y="4" rx="2.254" width="40" height="64" transform="rotate(90 36 36)" fill="none" stroke="#00a5ff" stroke-miterlimit="10" stroke-width=".1"/><circle cx="36" cy="36" r="29" fill="none" stroke="#00a5ff" stroke-miterlimit="10" stroke-width=".1"/><g stroke-linecap="round" stroke-miterlimit="10" stroke-width="6" stroke="#fff" fill="none" stroke-linejoin="round"><circle cx="30.806" cy="34.822" r="22.224"/><path d="M43.92 17.016a22.124 22.124 0 01-13.114 4.28 22.124 22.124 0 01-13.123-4.287"/><path d="M46.735 19.66c-3.301 4.46-9.726 8.362-15.929 8.362a21.241 21.241 0 01-16.21-8.299"/><path d="M49.149 22.655C46.324 29.142 38.635 34.75 30.806 34.75a21.24 21.24 0 01-18.463-11.688"/><path d="M51.23 26.425c-2.618 8.18-11.28 15.05-20.424 15.05a22.361 22.361 0 01-20.555-14.814"/><path d="M52.559 30.551a22.232 22.232 0 01-21.753 17.652A22.641 22.641 0 018.874 31.214m36.268 20.757c1.317.945 3.733 3.635 6.628 3.675s5.593-3.15 7.058-2.328c2.606 1.463 3.751 3.728 6.691 3.774"/><path d="M37.818 55.844a22.708 22.708 0 01-14.097-21.022 22.232 22.232 0 0114.118-20.7"/><path d="M41.563 15.825a22.223 22.223 0 00-11.175 18.997A21.895 21.895 0 0041.66 53.93"/><path d="M44.578 17.825a22.926 22.926 0 00-7.523 16.997c0 6.904 2.885 13.414 8.087 17.149"/></g><circle cx="30.806" cy="34.822" r="22.224" fill="#f4aa41"/><path fill="#e27022" d="M43.294 15.825c-6.239 2.68-12.011 8.035-12.011 17.646s2.768 16.856 11.31 19.955c5.712-4.986 11.01-8.886 11.01-18.498S47.09 18.879 43.294 15.825z"/><g fill="none" stroke="#000" stroke-linecap="round" stroke-linejoin="round" stroke-width="2"><circle cx="30.806" cy="34.822" r="22.224"/><path d="M43.92 17.016a22.124 22.124 0 01-13.114 4.28 22.124 22.124 0 01-13.123-4.287"/><path d="M46.735 19.66c-3.301 4.46-9.726 8.362-15.929 8.362a21.241 21.241 0 01-16.21-8.299"/><path d="M49.149 22.655C46.324 29.142 38.635 34.75 30.806 34.75a21.24 21.24 0 01-18.463-11.688"/><path d="M51.23 26.425c-2.618 8.18-11.28 15.05-20.424 15.05a22.361 22.361 0 01-20.555-14.814"/><path d="M52.559 30.551a22.232 22.232 0 01-21.753 17.652A22.641 22.641 0 018.874 31.214m36.268 20.757c1.317.945 3.733 3.635 6.628 3.675s5.593-3.15 7.058-2.328c2.606 1.463 3.751 3.728 6.691 3.774"/><path d="M37.818 55.844a22.708 22.708 0 01-14.097-21.022 22.232 22.232 0 0114.118-20.7"/><path d="M41.563 15.825a22.223 22.223 0 00-11.175 18.997A21.895 21.895 0 0041.66 53.93"/><path d="M44.578 17.825a22.926 22.926 0 00-7.523 16.997c0 6.904 2.885 13.414 8.087 17.149"/></g></svg>
